docs/public/static/base-ui/base-ui-logo-dark.svg

<svg width="368" height="100" fill="none" xmlns="http://www.w3.org/2000/svg"><path d="M50.125 87.5c17.259 0 31.25-13.991 31.25-31.25h-62.5c0 17.259 13.991 31.25 31.25 31.25ZM18.875 12.5C34.408 12.5 47 25.092 47 40.625V50H18.875V12.5ZM81.375 50A28.126 28.126 0 0 0 53.25 21.875V50h28.125Z" fill="#0073E6"/><path d="M118.775 19.375h19.2c5.55 0 9.85 1.1 12.9 3.3 3.1 2.2 4.65 5.75 4.65 10.65v.3c0 2.7-.65 5.05-1.95 7.05-1.3 1.95-3.475 3.4-6.525 4.35 3.65.8 6.35 2.225 8.1 4.275 1.75 2 2.625 4.8 2.625 8.4v.3c0 5-1.6 8.75-4.8 11.25-3.15 2.5-7.675 3.75-13.575 3.75h-20.625V19.375Zm19.425 46.5c3.35 0 5.8-.725 7.35-2.175 1.6-1.45 2.4-3.575 2.4-6.375v-.3c0-2.8-.825-4.875-2.475-6.225-1.6-1.4-4.25-2.1-7.95-2.1h-9v17.175h9.675Zm-1.425-23.925c3.3 0 5.65-.625 7.05-1.875 1.4-1.25 2.1-3.25 2.1-6v-.3c0-2.55-.75-4.4-2.25-5.55-1.5-1.15-3.85-1.725-7.05-1.725h-8.1v15.45h8.25Zm42.856 31.8c-2.3 0-4.475-.425-6.525-1.275-2.05-.85-3.85-2.1-5.4-3.75-1.55-1.7-2.775-3.775-3.675-6.225-.9-2.45-1.35-5.275-1.35-8.475v-.6c0-3.15.45-5.975 1.35-8.475.95-2.55 2.2-4.7 3.75-6.45 1.6-1.8 3.45-3.175 5.55-4.125 2.1-.95 4.325-1.425 6.675-1.425 3 0 5.475.65 7.425 1.95 1.95 1.25 3.5 2.85 4.65 4.8v-5.925h9.075V73h-9.075v-6.45c-.55.95-1.25 1.875-2.1 2.775-.85.85-1.825 1.6-2.925 2.25a17.22 17.22 0 0 1-3.525 1.575c-1.25.4-2.55.6-3.9.6Zm2.175-7.2c1.45 0 2.825-.25 4.125-.75a9.482 9.482 0 0 0 3.375-2.4c.95-1.1 1.7-2.45 2.25-4.05.55-1.65.825-3.575.825-5.775v-.6c0-4.4-.925-7.65-2.775-9.75-1.85-2.1-4.3-3.15-7.35-3.15-3.15 0-5.65 1.125-7.5 3.375-1.85 2.25-2.775 5.5-2.775 9.75v.6c0 4.3.95 7.5 2.85 9.6 1.9 2.1 4.225 3.15 6.975 3.15Zm42.372 7.2c-5.1 0-9.075-1.1-11.925-3.3-2.8-2.25-4.3-5.475-4.5-9.675h8.55c.25 2 .925 3.55 2.025 4.65 1.15 1.1 3.075 1.65 5.775 1.65 2.45 0 4.225-.425 5.325-1.275 1.15-.85 1.725-2.1 1.725-3.75 0-1.6-.675-2.775-2.025-3.525-1.35-.75-3.475-1.375-6.375-1.875-2.6-.4-4.8-.9-6.6-1.5-1.8-.6-3.275-1.375-4.425-2.325-1.1-.95-1.9-2.075-2.4-3.375-.5-1.3-.75-2.875-.75-4.725 0-1.95.425-3.65 1.275-5.1.85-1.5 1.95-2.725 3.3-3.675 1.4-1 2.975-1.75 4.725-2.25 1.75-.5 3.55-.75 5.4-.75 2 0 3.875.2 5.625.6 1.8.4 3.375 1.075 4.725 2.025 1.35.9 2.45 2.125 3.3 3.675.9 1.5 1.475 3.35 1.725 5.55h-8.4c-.4-1.8-1.15-3.125-2.25-3.975-1.05-.85-2.625-1.275-4.725-1.275-1.95 0-3.475.425-4.575 1.275-1.1.85-1.65 1.975-1.65 3.375 0 .7.125 1.325.375 1.875.25.5.675.95 1.275 1.35.65.35 1.5.675 2.55.975 1.05.3 2.35.575 3.9.825 2.3.35 4.35.8 6.15 1.35 1.85.5 3.4 1.2 4.65 2.1a8.15 8.15 0 0 1 2.85 3.375c.7 1.35 1.05 3.075 1.05 5.175 0 4-1.35 7.1-4.05 9.3-2.7 2.15-6.575 3.225-11.625 3.225Zm39.678 0c-2.9 0-5.575-.45-8.025-1.35-2.4-.95-4.5-2.275-6.3-3.975-1.75-1.75-3.125-3.85-4.125-6.3-.95-2.45-1.425-5.225-1.425-8.325v-.6c0-3.05.475-5.8 1.425-8.25 1-2.5 2.375-4.625 4.125-6.375 1.75-1.8 3.8-3.175 6.15-4.125 2.4-1 5-1.5 7.8-1.5 2.45 0 4.775.375 6.975 1.125a15.85 15.85 0 0 1 5.925 3.525c1.7 1.6 3.05 3.65 4.05 6.15 1.05 2.5 1.575 5.5 1.575 9v2.625h-28.725c.15 3.75 1.125 6.625 2.925 8.625 1.85 2 4.475 3 7.875 3 2.75 0 4.85-.525 6.3-1.575 1.45-1.05 2.35-2.525 2.7-4.425h8.775c-.65 4.15-2.55 7.325-5.7 9.525-3.15 2.15-7.25 3.225-12.3 3.225Zm9.15-24.45c-.25-3.4-1.2-5.875-2.85-7.425-1.6-1.55-3.825-2.325-6.675-2.325-2.75 0-5 .875-6.75 2.625-1.75 1.7-2.85 4.075-3.3 7.125h19.575ZM318.65 73.75c-13.425 0-21.075-7.35-21.075-21.15V19.375h10.05V51.85c0 9.825 3.15 13.875 11.1 13.875 7.725 0 11.625-3.45 11.625-14.55v-31.8h10.05V52c0 14.025-7.575 21.75-21.75 21.75Zm32.374-.75V19.375h10.05V73h-10.05Z" fill="#fff"/></svg>

<svg width="368" height="100" viewBox="0 0 368 100" fill="none" xmlns="http://www.w3.org/2000/svg">
<path d="M50.125 87.5C67.3839 87.5 81.375 73.5089 81.375 56.25H18.875C18.875 73.5089 32.8661 87.5 50.125 87.5Z" fill="url(#paint0_linear_741_19)"/>
<path d="M18.875 12.5V12.5C34.408 12.5 47 25.092 47 40.625V50H18.875V12.5Z" fill="url(#paint1_linear_741_19)"/>
<path d="M81.375 50C81.375 46.3066 80.6475 42.6493 79.2341 39.237C77.8207 35.8247 75.749 32.7243 73.1374 30.1126C70.5257 27.501 67.4253 25.4293 64.013 24.0159C60.6007 22.6025 56.9434 21.875 53.25 21.875L53.25 50H81.375Z" fill="url(#paint2_linear_741_19)"/>
<path d="M118.775 19.375H137.975C143.525 19.375 147.825 20.475 150.875 22.675C153.975 24.875 155.525 28.425 155.525 33.325V33.625C155.525 36.325 154.875 38.675 153.575 40.675C152.275 42.625 150.1 44.075 147.05 45.025C150.7 45.825 153.4 47.25 155.15 49.3C156.9 51.3 157.775 54.1 157.775 57.7V58C157.775 63 156.175 66.75 152.975 69.25C149.825 71.75 145.3 73 139.4 73H118.775V19.375ZM138.2 65.875C141.55 65.875 144 65.15 145.55 63.7C147.15 62.25 147.95 60.125 147.95 57.325V57.025C147.95 54.225 147.125 52.15 145.475 50.8C143.875 49.4 141.225 48.7 137.525 48.7H128.525V65.875H138.2ZM136.775 41.95C140.075 41.95 142.425 41.325 143.825 40.075C145.225 38.825 145.925 36.825 145.925 34.075V33.775C145.925 31.225 145.175 29.375 143.675 28.225C142.175 27.075 139.825 26.5 136.625 26.5H128.525V41.95H136.775ZM179.631 73.75C177.331 73.75 175.156 73.325 173.106 72.475C171.056 71.625 169.256 70.375 167.706 68.725C166.156 67.025 164.931 64.95 164.031 62.5C163.131 60.05 162.681 57.225 162.681 54.025V53.425C162.681 50.275 163.131 47.45 164.031 44.95C164.981 42.4 166.231 40.25 167.781 38.5C169.381 36.7 171.231 35.325 173.331 34.375C175.431 33.425 177.656 32.95 180.006 32.95C183.006 32.95 185.481 33.6 187.431 34.9C189.381 36.15 190.931 37.75 192.081 39.7V33.775H201.156V73H192.081V66.55C191.531 67.5 190.831 68.425 189.981 69.325C189.131 70.175 188.156 70.925 187.056 71.575C185.956 72.225 184.781 72.75 183.531 73.15C182.281 73.55 180.981 73.75 179.631 73.75ZM181.806 66.55C183.256 66.55 184.631 66.3 185.931 65.8C187.231 65.25 188.356 64.45 189.306 63.4C190.256 62.3 191.006 60.95 191.556 59.35C192.106 57.7 192.381 55.775 192.381 53.575V52.975C192.381 48.575 191.456 45.325 189.606 43.225C187.756 41.125 185.306 40.075 182.256 40.075C179.106 40.075 176.606 41.2 174.756 43.45C172.906 45.7 171.981 48.95 171.981 53.2V53.8C171.981 58.1 172.931 61.3 174.831 63.4C176.731 65.5 179.056 66.55 181.806 66.55ZM224.178 73.75C219.078 73.75 215.103 72.65 212.253 70.45C209.453 68.2 207.953 64.975 207.753 60.775H216.303C216.553 62.775 217.228 64.325 218.328 65.425C219.478 66.525 221.403 67.075 224.103 67.075C226.553 67.075 228.328 66.65 229.428 65.8C230.578 64.95 231.153 63.7 231.153 62.05C231.153 60.45 230.478 59.275 229.128 58.525C227.778 57.775 225.653 57.15 222.753 56.65C220.153 56.25 217.953 55.75 216.153 55.15C214.353 54.55 212.878 53.775 211.728 52.825C210.628 51.875 209.828 50.75 209.328 49.45C208.828 48.15 208.578 46.575 208.578 44.725C208.578 42.775 209.003 41.075 209.853 39.625C210.703 38.125 211.803 36.9 213.153 35.95C214.553 34.95 216.128 34.2 217.878 33.7C219.628 33.2 221.428 32.95 223.278 32.95C225.278 32.95 227.153 33.15 228.903 33.55C230.703 33.95 232.278 34.625 233.628 35.575C234.978 36.475 236.078 37.7 236.928 39.25C237.828 40.75 238.403 42.6 238.653 44.8H230.253C229.853 43 229.103 41.675 228.003 40.825C226.953 39.975 225.378 39.55 223.278 39.55C221.328 39.55 219.803 39.975 218.703 40.825C217.603 41.675 217.053 42.8 217.053 44.2C217.053 44.9 217.178 45.525 217.428 46.075C217.678 46.575 218.103 47.025 218.703 47.425C219.353 47.775 220.203 48.1 221.253 48.4C222.303 48.7 223.603 48.975 225.153 49.225C227.453 49.575 229.503 50.025 231.303 50.575C233.153 51.075 234.703 51.775 235.953 52.675C237.203 53.525 238.153 54.65 238.803 56.05C239.503 57.4 239.853 59.125 239.853 61.225C239.853 65.225 238.503 68.325 235.803 70.525C233.103 72.675 229.228 73.75 224.178 73.75ZM263.856 73.75C260.956 73.75 258.281 73.3 255.831 72.4C253.431 71.45 251.331 70.125 249.531 68.425C247.781 66.675 246.406 64.575 245.406 62.125C244.456 59.675 243.981 56.9 243.981 53.8V53.2C243.981 50.15 244.456 47.4 245.406 44.95C246.406 42.45 247.781 40.325 249.531 38.575C251.281 36.775 253.331 35.4 255.681 34.45C258.081 33.45 260.681 32.95 263.481 32.95C265.931 32.95 268.256 33.325 270.456 34.075C272.706 34.825 274.681 36 276.381 37.6C278.081 39.2 279.431 41.25 280.431 43.75C281.481 46.25 282.006 49.25 282.006 52.75V55.375H253.281C253.431 59.125 254.406 62 256.206 64C258.056 66 260.681 67 264.081 67C266.831 67 268.931 66.475 270.381 65.425C271.831 64.375 272.731 62.9 273.081 61H281.856C281.206 65.15 279.306 68.325 276.156 70.525C273.006 72.675 268.906 73.75 263.856 73.75ZM273.006 49.3C272.756 45.9 271.806 43.425 270.156 41.875C268.556 40.325 266.331 39.55 263.481 39.55C260.731 39.55 258.481 40.425 256.731 42.175C254.981 43.875 253.881 46.25 253.431 49.3H273.006Z" fill="white"/>
<path d="M318.65 73.75C305.225 73.75 297.575 66.4 297.575 52.6V19.375H307.625V51.85C307.625 61.675 310.775 65.725 318.725 65.725C326.45 65.725 330.35 62.275 330.35 51.175V19.375H340.4V52C340.4 66.025 332.825 73.75 318.65 73.75ZM351.024 73V19.375H361.074V73H351.024Z" fill="white"/>
<defs>
<linearGradient id="paint0_linear_741_19" x1="81.375" y1="87.5" x2="56.375" y2="37.5" gradientUnits="userSpaceOnUse">
<stop offset="0.0833333" stop-color="#007FFF"/>
<stop offset="0.953125" stop-color="#3399FF"/>
</linearGradient>
<linearGradient id="paint1_linear_741_19" x1="47" y1="50" x2="11" y2="23" gradientUnits="userSpaceOnUse">
<stop offset="0.0833333" stop-color="#007FFF"/>
<stop offset="0.953125" stop-color="#3399FF"/>
</linearGradient>
<linearGradient id="paint2_linear_741_19" x1="81.375" y1="78.125" x2="25.125" y2="21.875" gradientUnits="userSpaceOnUse">
<stop offset="0.0833333" stop-color="#007FFF"/>
<stop offset="0.953125" stop-color="#3399FF"/>
</linearGradient>
</defs>
</svg>
